svgs/duotone/star-and-crescent.svg

<svg xmlns="http://www.w3.org/2000/svg" viewBox="0 0 512 512"><!--! Font Awesome Pro 6.3.0 by @fontawesome - https://fontawesome.com License - https://fontawesome.com/license (Commercial License) Copyright 2023 Fonticons, Inc. --><defs><style>.fa-secondary{opacity:.4}</style></defs><path class="fa-primary" d="M340.5 466.4c-1.5 0-6.875 .5-9.25 .5c-116.3 0-210.8-94.63-210.8-210.9s94.5-210.9 210.8-210.9c2.375 0 7.75 .5 9.25 .5c7.125 0 13.25-5 14.75-12c1.375-7.25-2.625-14.5-9.5-17.12c-29.13-11-59.38-16.5-89.75-16.5c-141.1 0-256 114.9-256 256s114.9 256 256 256c30.25 0 60.25-5.5 89.38-16.38c5.875-2 10.25-7.625 10.25-14.25C355.6 473.4 349.3 466.4 340.5 466.4z"/><path class="fa-secondary" d="M509 230.9l-55.25 53.88l13 76c1.125 6.5-4 11.75-9.75 11.75c-1.625 0-3.125-.375-4.75-1.25l-68.25-35.88l-68.38 35.88c-1.5 .875-3.125 1.25-4.625 1.25c-5.75 0-10.88-5.25-9.75-11.75l13-76l-55.25-53.88c-5.875-5.75-2.625-15.88 5.5-17l76.38-11.12l34.13-69.25C376.9 129.9 380.5 128 384 128c3.5 0 7.125 1.875 8.875 5.5l34.25 69.25l76.38 11.12C511.6 215 514.9 225.1 509 230.9z"/></svg>

<svg xmlns="http://www.w3.org/2000/svg" viewBox="0 0 512 512"><!-- Font Awesome Pro 6.0.0-alpha2 by @fontawesome - https://fontawesome.com License - https://fontawesome.com/license (Commercial License) --><defs><style>.fa-secondary{opacity:.4}</style></defs><path d="M508.999 230.875L453.749 284.75L466.749 360.75C467.874 367.25 462.749 372.5 456.999 372.5C455.374 372.5 453.874 372.125 452.249 371.25L383.998 335.375L315.623 371.25C314.123 372.125 312.498 372.5 310.998 372.5C305.248 372.5 300.123 367.25 301.248 360.75L314.248 284.75L258.998 230.875C253.123 225.125 256.373 215 264.498 213.875L340.873 202.75L374.998 133.5C376.873 129.875 380.498 128 383.998 128C387.498 128 391.123 129.875 392.873 133.5L427.123 202.75L503.499 213.875C511.624 215 514.874 225.125 508.999 230.875Z" class="fa-secondary"/><path d="M340.502 466.375C339.002 466.375 333.627 466.875 331.252 466.875C215.001 466.875 120.501 372.25 120.501 256S215.001 45.125 331.252 45.125C333.627 45.125 339.002 45.625 340.502 45.625C347.627 45.625 353.752 40.625 355.252 33.625C356.627 26.375 352.627 19.125 345.752 16.5C316.627 5.5 286.376 0 256.001 0C114.876 0 0 114.875 0 256S114.876 512 256.001 512C286.251 512 316.251 506.5 345.377 495.625C351.252 493.625 355.627 488 355.627 481.375C355.627 473.375 349.252 466.375 340.502 466.375Z" class="fa-primary"/></svg>
